icons/global/user-settings/privacy-&-safety.svg

<svg xmlns="http://www.w3.org/2000/svg" width="24" height="24" fill="none">
  <path fill="#000" d="M19 5.977c-3.44 0-6.174-3.565-6.201-3.602-.378-.5-1.22-.5-1.598 0C11.174 2.412 8.44 5.977 5 5.977a1 1 0 0 0-1 1v7c0 3.807 6.764 7.478 7.534 7.884a1.009 1.009 0 0 0 .932 0c.77-.406 7.534-4.077 7.534-7.884v-7a1 1 0 0 0-1-1Zm-4 10-3-2-3 2 1-3-2-2h3l1-3 1 3h3l-2 2 1 3Z"/>
</svg>

<svg width="24" height="24" viewBox="0 0 24 24" fill="none" xmlns="http://www.w3.org/2000/svg">
<path d="M19 5.977C15.56 5.977 12.826 2.412 12.799 2.375C12.421 1.875 11.579 1.875 11.201 2.375C11.174 2.412 8.44 5.977 5 5.977C4.447 5.977 4 6.425 4 6.977V13.977C4 17.784 10.764 21.455 11.534 21.861C11.68 21.938 11.84 21.975 12 21.975C12.16 21.975 12.32 21.937 12.466 21.861C13.236 21.455 20 17.784 20 13.977V6.977C20 6.425 19.553 5.977 19 5.977ZM15 15.977L12 13.977L9 15.977L10 12.977L8 10.977H11L12 7.977L13 10.977H16L14 12.977L15 15.977Z" fill="black"/>
</svg>
